X:1
T:F Major Oliver Brownson, 1790
T:Isaac Watts, 1706 (Hymn 87, Book 2)       86. 86; (C. M.)
T:Victory
T:Transcribed from  The Easy Instructor, 1803.
%%score [ 1 2 3 4 ]
L:1/8
Q:1/4=120
M:4/4
K:F
V:1 treble nm="Treble" snm="Tr."
V:2 treble nm="Counter" snm="C."
V:3 treble-8 nm="Tenor" snm="T."
V:4 bass nm="Bass" snm="B."
V:1
 c8 | c4 (e2 f2) | d6 e2 | c4 c4 | c8 | f4 (d2 B2 | c2) c2 A4- | A4 G4 | G8 | (3(F2 G2 A2) A2 A2 | %10
w: 1.~Ho-|san- na *|to the|Prince of|light,|Who clothed~ _|_ him- self~|_ in|clay,|En- * * tered the|
w: 2.~Death|is no *|more the|king of|dread,|Since our~ _|_ Im- man-|u- el|rose;|He * * took the|
 d8 | (f2 c2) c2 c2 | A4 (c2 A2) | G2 GF G2 A2 | d6 c2 | (A3 G F2) d2 | (c2 A2) c4 | [Ac]8 |] %18
w: i-|ron * gates of|hell, And *|tore the * bars a-|way, And|tore~ _ _ the|bars~ _ a-|way,|
w: ty-|rant's * sting a-|way, And *|spoiled our * hel- lish|foes, And|spoiled~ _ _ our|hel- * lish|foes.|
V:2
 F8 | A4 (G2 F2) | G6 G2 | A4 (B2 G2) | A8 | A4 (A2 B2 | G2) G2 F4- | F4 D4 | E8 | %9
w: 3.~See|how the *|Con- queror|mounts a- *|loft,|And to~ _|_ his Fa-|* ther|flies,|
w: 4.~There|our ex- *|al- ted|Sa- vior *|reigns,|And scat- *|* ters bles-|* sings|down;|
 (3(D2 E2 F2) E2 C2 | G8 | A4 A2 A2 | A4 A,4 | C2 C2 E2 DC | F6 F2 | (F4 D2) G2 | (G2 F2) G4 | %17
w: With * * scars of|ho-|nor in his|flesh, And|tri- umph in his *|eyes, And|tri- * umph|in * his|
w: Our * * Je- sus|fills|the mid- dle|seat Of|the ce- les- tial *|throne, Of|the * ce-|les- * tial|
 A8 |] %18
w: eyes.|
w: throne.|
V:3
 c8 | f4 (c2 A2) | (B3 c dc) B2 | A4 G4 | F8 | c4 (d2 f2 | e2) ge c4- | c4 =B4 | c8 | %9
w: 5.~Raise|your de- *|vo- * * * tion,|mor- tal|tongues,|To reach~ _|_ his * blest~|_ a-|bode;|
w: 6.~Bright|an- gels. *|strike~ _ _ _ your|lou- dest|strings,|Your swee- *|* test * voi-|* ces|raise;|
 (f2 d2) c2 A2 | G8 | F4 c2 c2 | c4 f4 | e2 e2 e2 dc | A6 AG | (A2 f2 c2) B2 | A4 G4 | F8 |] %18
w: Sweet * be the|ac-|cents of your|songs To|our in- car- nate *|God, To *|our~ _ _ in-|car- nate|God.|
w: Let * heav'n and|all|cre- a- ted|things Sing|our Im- man- uel's *|praise, Sing *|our~ _ _ Im-|man- uel's|praise.|
V:4
 F,8 | F,4 (E,2 D,2) | (G,3 A, B,A,) G,2 | F,4 C,4 | F,8 | F,4 (B,,2 D,2 | C,2) C,2 F,4- | %7
 F,4 G,4 | C,8 | D,4 A,2 A,2 | B,8 | C2 A,2 F,2 F,2 | F,4 F,4 | C,2 C,2 C,2 A,2 | D,6 F,2 | %15
 F,6 G,2 | F,4 C,4 | F,8 |] %18

